X:38
T: Mllerliddchen, S. 72
N: R0062
O: Luxemburg
S: D'Fraen um Kanddaaf an der aler Zeit, Luxemburg 1929]
R: ??]
M: 6/8
L: 1/8
K: G
D | G2BA2G | GFAG2
E | F2GAGF | EDED2
d | Bddede | d3A2
A | dcBABG | GFED2
D | GFGABc | A3G2

@@@ Tune index: 8092
